X: 99
T:Galar Gwyr Ffrainc
T:The Grief of the Men of France
M:6/8
L:1/8
Q:130
R:Jig
S:Cadw Twmpath Collection
A:Wales
Z:brian_martin12345@yahoo.com
K:G
D|G2A Bcd|cded2d|cdc B2B|AGA"Fine"G2:||
d|B2A GAB|A3d3|B2A GAB|"     D.C."A3-A2||

